material/.icons/material/cellphone-information.svg

<svg xmlns="http://www.w3.org/2000/svg" viewBox="0 0 24 24"><path d="M13 7h-2v2h2V7m0 4h-2v6h2v-6m4-10H7c-1.1 0-2 .9-2 2v18c0 1.1.9 2 2 2h10c1.1 0 2-.9 2-2V3c0-1.1-.9-2-2-2m0 18H7V5h10v14z"/></svg>

<?xml version="1.0" encoding="UTF-8"?><!DOCTYPE svg PUBLIC "-//W3C//DTD SVG 1.1//EN" "http://www.w3.org/Graphics/SVG/1.1/DTD/svg11.dtd"><svg xmlns="http://www.w3.org/2000/svg" xmlns:xlink="http://www.w3.org/1999/xlink" version="1.1" id="mdi-cellphone-information" width="24" height="24" viewBox="0 0 24 24"><path d="M13 7H11V9H13V7M13 11H11V17H13V11M17 1H7C5.9 1 5 1.9 5 3V21C5 22.1 5.9 23 7 23H17C18.1 23 19 22.1 19 21V3C19 1.9 18.1 1 17 1M17 19H7V5H17V19Z" /></svg>
